X:350
T:Isle of Skye
R:Reel
B:The Athole Collection
M:C|
L:1/8
K:B_
d|BFDF BFDF|ECC=B cGGA|BFDF BFDF|ECFD DB,B,:|
F|Bdfb fdBd|cBcd cBGc|Bdfb fdBd|cBcd B/B/B B>b|gfgb fdBd|
cBcd cBGg|fBgB aBbB|cBcd B/B/B ~B||

